z_dist/img/bg/bp768/about-footer-wave.svg

<svg width="768" height="556" viewBox="0 0 768 556" fill="none" xmlns="http://www.w3.org/2000/svg">
<path fill-rule="evenodd" clip-rule="evenodd" d="M32 42.4906C1.29375 53.5818 0 56.9953 0 56.9953V118V118.433V556H768L768 118.433L768 118L768 59.552L736 55.712C721.753 54.0023 702.113 50.4403 678.635 46.182C649.381 40.8763 614.168 34.4897 576 29.2586C558.474 26.8566 541.96 22.853 524.689 18.6656C514.123 16.1038 503.272 13.4732 491.733 11.0986C465.55 4.19568 438.309 3.23567 411.153 2.27865C402.078 1.95885 393.013 1.63938 384 1.0986C320 -2.7414 260.533 3.88503 192 14.7532C171.823 17.9529 152.32 20.7114 134.059 23.2942C90.2944 29.4841 53.6659 34.6648 32 42.4906Z" fill="#F5F5F5"/>
</svg>

<svg width="768" height="556" fill="none" xmlns="http://www.w3.org/2000/svg"><path fill-rule="evenodd" clip-rule="evenodd" d="M32 42.49C1.294 53.583 0 56.996 0 56.996V556h768V59.552l-32-3.84c-14.247-1.71-33.887-5.272-57.365-9.53C649.381 40.876 614.168 34.49 576 29.259c-17.526-2.402-34.04-6.406-51.311-10.593-10.566-2.562-21.417-5.193-32.956-7.567-26.183-6.903-53.424-7.863-80.58-8.82-9.075-.32-18.14-.64-27.153-1.18-64-3.84-123.467 2.786-192 13.654-20.177 3.2-39.68 5.958-57.941 8.541C90.294 29.484 53.666 34.664 32 42.491z" fill="#F5F5F5"/></svg>
